X:1
T:Parte C
%%score { 1 | 2 }
L:1/8
M:4/4
K:Bb
V:1 treble nm="Piano" snm="Pno."
V:2 bass 
V:1
 (!3!G!2!^F!3!G!4!A"^La Cumparsita [Parte C] Video-Tutorial - www.javiertucatmoreno.com/tutoriales" z !5!B2 !4!A | %1
 !3!G2 !1!D6) | (!3!E!2!D!3!E!4!F !5!G3 !3!E | !2!D2 !1!B,6) | %4
 (!3!G"^"!2!^F"^"!3!G"^"!4!A z"^" !5!B2"^" !4!A |"^" !3!G2 !1!D6) | %6
"^" (!3!E"^"!2!D"^"!3!E"^"!4!F"^" !5!G3"^" !3!E | !2!D8) | z2 !3!d2 !4!e2 !3!d2 | %9
 d2 z c ce d2 | z2 !3!c2 !4!d2 !3!c2 | c2 z B Bd c2 | z2 (!3!B2 !4!c2 !3!B2 | B2) z (A Ac B2) | %14
 z2 !2!A2 !1!G2 !2!^F2 | !3!G2 z2 z4 || %16
V:2
 (!3!G,,!4!^F,,!3!G,,!2!A,, z !1!B,,2 !2!A,, | !3!G,,2 !5!D,,2) (!1!=B,,2 !4!G,,2 | !1!C,8 | %3
 !2!B,,4 !3!A,,2 !4!^F,,2) | (!3!G,,"^"!4!^F,,"^"!3!G,,"^"!2!A,, z"^" !1!B,,2"^" !2!A,, | %5
"^" !3!G,,2"^" !5!D,,2) (!1!=B,,2"^" !4!G,,2 | !1!C,8 | !3!B,,2) (!1!D,2 !3!B,,2 !4!A,,2 | %8
 !5!G,,2) z2 z4 | !5!!3!!1![D,^F,A,]2 z2 [D,F,A,]2 z2 | [D,^F,A,]2 z2 [D,F,A,]2 z2 | %11
 !5!!2!!1![D,G,B,]2 z2 [D,G,B,]2 z2 | [D,G,B,]2 z2 [D,G,B,]2 z2 | [D,^F,A,]2 z2 [D,F,A,]2 z2 | %14
 [D,,D,]8 | !3!G,,2 !2!G,2 !3!F,2"^Vuelve a la\nParte A" !4!E,2 || %16

